symbols/web/sell/materialsymbolssharp/sell_wght600grad200_48px.svg

<svg xmlns="http://www.w3.org/2000/svg" height="48" width="48"><path d="M25.8 46.95 2.8 24V2.8h21.35L47.1 25.65Zm.15-5.8L41.2 25.9l-19-18.95H6.95v15.3ZM12.2 14.85q1.15 0 1.95-.8t.8-1.9q0-1.1-.825-1.9-.825-.8-1.925-.8t-1.875.8q-.775.8-.775 1.9 0 1.1.775 1.9.775.8 1.875.8Zm-5.25-7.9Z"/></svg>

<svg xmlns="http://www.w3.org/2000/svg" height="48" width="48"><path d="M25.8 46.95 2.8 24V2.8H24.15L47.1 25.65ZM25.95 41.15 41.2 25.9 22.2 6.95H6.95V22.25ZM12.2 14.85Q13.35 14.85 14.15 14.05Q14.95 13.25 14.95 12.15Q14.95 11.05 14.125 10.25Q13.3 9.45 12.2 9.45Q11.1 9.45 10.325 10.25Q9.55 11.05 9.55 12.15Q9.55 13.25 10.325 14.05Q11.1 14.85 12.2 14.85ZM6.95 6.95Z"/></svg>
